X: 24741
T: Madam's Hill
R: jig
M: 6/8
K: Eminor
BGE EBE|EBE AFD|BGE EBG|AB/c/d eed|
BGE EBE|EBG AB/c/d|edB dze|GAB ~A3:|
BGE ezg|fdB ~e3|BGE ~e2g|fdB ~A3|
BGE ezg|fdB ~e3|edB d2e|GAB ~A3:|

